X:39
T:Elaine Handrahan, Hows your voice \.i
R:jig
C:Paul S. Cranford
O:Cape Breton Island
S:http://www.cranfordpub.com
D:currently unrecorded
B:currently unpublished in book form
Z:psc
H:                                                        copyrights Cranford Publications, SOCAN
L:1/8
Q:300
M:6/8
K:D
aff fed|efg edB|AFA def|gee efg|
aff fed|efg edB|AFA Gge|[1fdd d2 (3(e/f/g/):|[2fdd d2|]
||f|:gec Aaf|gec d2 A|(B/c/d)G Adf|[1gee e2 f|
gec Aaf|gec d2 A|(B/c/d)B Adg|fdd def:|
[2gee efg|aff fed|efg edB|AFA Gge|fdd d (3(e/f/g/)|]
